X: 34
T: Jesse
O: No 34 Pages 14-15 William Clarke of Feltwellm MS 1858
N:Song tune : Jesse the Flower of Dunblane 
N:Used for Elwina of Waterloo, collected by CJSharp
M: 6/8
L: 1/8
K: C
c/d/ | e>fe d<ge | c>Bc d<Bc/A/ | GAF EGc | cde !fermata!(ed) c/d/ |
e>fe d<ge | c>Bc d<Bc/A/ | GAF EGc |dAB c2 :|
|:e | ecd ea>g | ecd ecd | dBc dge | dBA G2A/B/ |
ced ecd | ege f!fermata!d e | f>ga g<ec | dAB c2 ||



